X:1
T:Within a Garden.
B:Songs of the West by S. Baring-Gould.
S:Harry Smith, Two bridges, Dartmoor.
M:3/4
L:1/8
K:Bb
z2 z F B d|B2 B A (G1/2A1/2) (B1/2G1/2)|F2 D2 z B|
w:With-in a gar-den a mai-*den *ling-ered, When
B G F3 E|D E F2 z F|B d f2 d B|
w:soft the shades of eve-ning fell Ex-pect-ing, fear-ing, A
(B1/2c1/2) (d1/2B1/2) G2 F F|B d (fd) B A|
w:foot-*step *hear-ing, Ex-pect-ing, fear-*ing, A
(G1/2A1/2) (B1/2G1/2) F2 D F|D F B2 c B|F A B2 z2||
w:foot-*step *hear-ing, Her love ap-pear-ing, to say Fare-well.
W:Within a garden a maiden lingered,
W:When soft the shades of evening fell
W:Expecting, fearing,
W:A footstep hearing,
W:Her love appearing,
W:To say farewell.
W:
W:With sighs and sorrow their vows they plighted
W:Once more embrace, one last adieu;
W:Tho' seas divide, love,
W:In this confide, love,
W:Whate'er betide, love
W:To thee I'm true.
W:
W:Long years are over, and still the maiden
W:Seeks oft at eve the trysting tree;
W:Her promise keeping,
W:And, faithful weeping
W:Her lost love sleeping
W:Across the sea.
W:
W:
